seasonal/pride/animated/logo_lesbian/logo_lesbian.svg

<svg
    version="1.1"
    id="logo_lesbian"
    xmlns:svg="http://www.w3.org/2000/svg"
    xmlns="http://www.w3.org/2000/svg"
    viewBox="0 0 500 500"
>
<defs>
    <clipPath id="bg_clip">
        <rect x="0" y="0" width="500" height="500" />
    </clipPath>
</defs>
<g id="striped_bg" clip-path="url(#bg_clip)">
    <rect id="stripe_5" fill="#A20161" width="500" height="500" />
    <polygon id="stripe_4" fill="#D161A2" points="0,0 0,765.165 765.165,0" /> <!-- 500 + [sqrt(2 * 125²) + sqrt(2 * (125 / 2)²)] -->
    <polygon id="stripe_2" fill="#FD9855" points="0,0 0,500 500,0" />
    <polygon id="stripe_1" fill="#D42C00" points="0,0 0,234.834 234.834,0" /> <!-- 500 - [sqrt(2 * 125²) + sqrt(2 * (125 / 2)²)] -->
    <line id="stripe_3" stroke="#FFFFFF" x1="500" y2="500" stroke-width="125" />
</g>
<g id="python_logo" transform="scale(1.1415525114155251141552511415525)">
    <path
        id="shadow"
        fill="#231F20"
        opacity="0.36"
        d="m283.1 68-11.506 3.3086c-12.223-1.8051-24.757-2.5971-36.895-2.5078-13.5 0.1-26.498 1.1992-37.898 3.1992-3.6998 0.6516-7.0474 1.386-10.107 2.1992h-35.893v18.801h4.5v7.6992h2.7832c-0.63936 3.7142-0.88476 7.7997-0.88476 12.301v4h-15.398l-2.2012 11 17.6 15.014v0.0859h79.201v10h-108.9c-23 0-43.2 13.8-49.5 40-7.3 30-7.6 48.801 0 80.201 0.49734 2.0782 1.0605 4.0985 1.6836 6.0625l-1.1836 10.438 13.346 11.549c7.032 7.5103 16.371 11.951 28.254 11.951h27.201v-36c0-26 22.6-49 49.5-49h79.199c22 0 39.6-18.102 39.6-40.102v-75.199c0-12.9-6.5819-23.831-16.516-31.273zm76.801 77.6-14.301 7.4004h-20.1v35.1c0 27.2-23.1 50-49.5 50h-79.1c-21.7 0-39.6 18.5-39.6 40.1v75.102c0 21.4 18.7 34 39.6 40.1 25.1 7.3 49.1 8.7 79.1 0 19.9-5.7 39.6-17.3 39.6-40.1v-30.102h-0.11914l-11.721-10h51.439c23 0 31.602-16 39.602-40 8.3-24.7 7.9-48.499 0-80.199-3.6226-14.491-9.3525-26.71-18.947-33.699zm-123.4 167.6h57.5v10h-57.5z"
    />
    <path
        id="upper_snake"
        fill="#CAD6FF"
        d="m217 53.7c-13.5 0.1-26.5 1.2-37.9 3.2-33.5 5.9-39.6 18.2-39.6 41v30.1h79.2v10h-108.9c-23 0-43.2 13.8-49.5 40-7.3 30-7.6 48.8 0 80.2 5.6 23.4 19.1 40 42.1 40h27.2v-36c0-26 22.6-49 49.5-49h79.1c22 0 39.6-18.1 39.6-40.1v-75.2c0-21.4-18.1-37.4-39.6-41-13.5-2.3-27.6-3.3-41.2-3.2zm-42.8 24.2c8.2 0 14.9 6.8 14.9 15.1s-6.7 15-14.9 15-14.9-6.7-14.9-15c0-8.4 6.7-15.1 14.9-15.1z"
    />
    <path
        id="lower_snake"
        fill="#FFFFFF"
        d="m307.8 138v35c0 27.2-23.1 50-49.5 50h-79.1c-21.7 0-39.6 18.5-39.6 40.1v75.1c0 21.4 18.7 34 39.6 40.1 25.1 7.3 49.1 8.7 79.1 0 19.9-5.7 39.6-17.3 39.6-40.1v-30.1h-79.1v-10h118.7c23 0 31.6-16 39.6-40 8.3-24.7 7.9-48.5 0-80.2-5.7-22.8-16.6-40-39.6-40h-29.7zm-44.5 190.2c8.2 0 14.9 6.7 14.9 15s-6.7 15.1-14.9 15.1-14.9-6.8-14.9-15.1 6.7-15 14.9-15z"
    />
</g>
</svg>

<?xml version="1.0" encoding="UTF-8" standalone="no"?>
<!DOCTYPE svg PUBLIC "-//W3C//DTD SVG 1.1//EN" "http://www.w3.org/Graphics/SVG/1.1/DTD/svg11.dtd">
<svg width="100%" height="100%" viewBox="0 0 500 500" version="1.1" xmlns="http://www.w3.org/2000/svg" xmlns:xlink="http://www.w3.org/1999/xlink" xml:space="preserve" xmlns:serif="http://www.serif.com/" style="fill-rule:evenodd;clip-rule:evenodd;">
    <g id="striped_bg">
        <rect id="stripe_5" x="0" y="0" width="500" height="500" style="fill:rgb(162,1,97);"/>
        <path id="stripe_4" d="M0,0L0,765.165L765.165,0L0,0Z" style="fill:rgb(209,97,162);fill-rule:nonzero;"/>
        <path id="stripe_2" d="M0,0L0,500L500,0L0,0Z" style="fill:rgb(253,152,85);fill-rule:nonzero;"/>
        <path id="stripe_1" d="M0,0L0,234.834L234.834,0L0,0Z" style="fill:rgb(212,44,0);fill-rule:nonzero;"/>
        <path id="stripe_3" d="M500,0L0,500" style="fill:none;fill-rule:nonzero;stroke:white;stroke-width:125px;"/>
    </g>
    <g id="python_logo" transform="matrix(1.14155,0,0,1.14155,0,0)">
        <path id="shadow" d="M283.1,68L271.594,71.309C259.371,69.504 246.837,68.712 234.699,68.801C221.199,68.901 208.201,70 196.801,72C193.101,72.652 189.754,73.386 186.694,74.199L150.801,74.199L150.801,93L155.301,93L155.301,100.699L158.084,100.699C157.445,104.414 157.199,108.499 157.199,113L157.199,117L141.801,117L139.6,128L157.2,143.014L157.2,143.1L236.401,143.1L236.401,153.1L127.501,153.1C104.501,153.1 84.301,166.9 78.001,193.1C70.701,223.1 70.401,241.901 78.001,273.301C78.499,275.38 79.062,277.4 79.685,279.364L78.501,289.802L91.847,301.351C98.879,308.861 108.218,313.302 120.101,313.302L147.302,313.302L147.302,277.302C147.302,251.302 169.902,228.302 196.802,228.302L276.001,228.302C298.001,228.302 315.601,210.2 315.601,188.2L315.601,113.001C315.601,100.101 309.019,89.17 299.085,81.728L283.1,68ZM359.901,145.6L345.6,153L325.5,153L325.5,188.1C325.5,215.3 302.4,238.1 276,238.1L196.9,238.1C175.2,238.1 157.3,256.6 157.3,278.2L157.3,353.302C157.3,374.702 176,387.302 196.9,393.402C222,400.702 246,402.102 276,393.402C295.9,387.702 315.6,376.102 315.6,353.302L315.6,323.2L315.481,323.2L303.76,313.2L355.199,313.2C378.199,313.2 386.801,297.2 394.801,273.2C403.101,248.5 402.701,224.701 394.801,193.001C391.178,178.51 385.448,166.291 375.854,159.302L359.901,145.6ZM236.501,313.2L294.001,313.2L294.001,323.2L236.501,323.2L236.501,313.2Z" style="fill:rgb(35,31,32);fill-opacity:0.36;fill-rule:nonzero;"/>
        <path id="upper_snake" d="M217,53.7C203.5,53.8 190.5,54.9 179.1,56.9C145.6,62.8 139.5,75.1 139.5,97.9L139.5,128L218.7,128L218.7,138L109.8,138C86.8,138 66.6,151.8 60.3,178C53,208 52.7,226.8 60.3,258.2C65.9,281.6 79.4,298.2 102.4,298.2L129.6,298.2L129.6,262.2C129.6,236.2 152.2,213.2 179.1,213.2L258.2,213.2C280.2,213.2 297.8,195.1 297.8,173.1L297.8,97.9C297.8,76.5 279.7,60.5 258.2,56.9C244.7,54.6 230.6,53.6 217,53.7ZM174.2,77.9C182.4,77.9 189.1,84.7 189.1,93C189.1,101.3 182.4,108 174.2,108C166,108 159.3,101.3 159.3,93C159.3,84.6 166,77.9 174.2,77.9Z" style="fill:rgb(202,214,255);fill-rule:nonzero;"/>
        <path id="lower_snake" d="M307.8,137.9L307.8,173C307.8,200.2 284.7,223 258.3,223L179.2,223C157.5,223 139.6,241.5 139.6,263.1L139.6,338.2C139.6,359.6 158.3,372.2 179.2,378.3C204.3,385.6 228.3,387 258.3,378.3C278.2,372.6 297.9,361 297.9,338.2L297.9,308.1L218.8,308.1L218.8,298.1L337.5,298.1C360.5,298.1 369.1,282.1 377.1,258.1C385.4,233.4 385,209.6 377.1,177.9C371.4,155.1 360.5,137.9 337.5,137.9L307.8,137.9ZM263.3,328.2C271.5,328.2 278.2,334.9 278.2,343.2C278.2,351.5 271.5,358.3 263.3,358.3C255.1,358.3 248.4,351.5 248.4,343.2C248.4,334.9 255.1,328.2 263.3,328.2Z" style="fill:white;fill-rule:nonzero;"/>
    </g>
</svg>
